svg/UnitedNationsOCHA-Humanitarian/food_NFI_blanket_icon_box.svg

<svg xmlns="http://www.w3.org/2000/svg" viewBox="0 0 32 32" enable-background="new 0 0 32 32"><path fill="#407cca" d="m25.6 0h-19.2c-3.52 0-6.4 2.88-6.4 6.4v19.2c0 3.52 2.88 6.4 6.4 6.4h19.2c3.521 0 6.4-2.88 6.4-6.4v-19.2c0-3.52-2.88-6.4-6.4-6.4m.461 28c-7.84-.064-9.534-2.112-12.872-2.112-3.972.003-6.303 1.095-7.303 1.708-.74.401-.568-.366-.568-.633 0-.27.44-.53.44-.53.919-.595 3.281-1.787 7.431-1.787 3.344 0 5.04 2.052 12.91 2.109 0 0 .6-.062.6.475s-.038.77-.638.77m.637-3.352c0 .536-.037.771-.638.771-7.84-.064-9.534-2.109-12.872-2.109-3.972 0-6.303 1.091-7.303 1.708-.74.398-.568-.369-.568-.637v-15.515c0-.269.44-.53.44-.53.919-.595 3.281-1.788 7.431-1.788 3.344 0 5.04 2.052 12.91 2.109 0 0 .6-.061.6.475v15.516m-.637-17.294c-7.84-.064-9.534-2.109-12.872-2.109-3.972 0-6.303 1.092-7.303 1.708-.74.398-.568-.369-.568-.636 0-.269.44-.53.44-.53.919-.595 3.281-1.787 7.431-1.787 3.344 0 5.04 2.053 12.91 2.109 0 0 .6-.061.6.475-.0001.536-.038.77-.638.77"/></svg>

<?xml version="1.0" encoding="utf-8"?>
<!-- Generator: Adobe Illustrator 16.0.3, SVG Export Plug-In . SVG Version: 6.00 Build 0)  -->
<!DOCTYPE svg PUBLIC "-//W3C//DTD SVG 1.1//EN" "http://www.w3.org/Graphics/SVG/1.1/DTD/svg11.dtd">
<svg version="1.1" id="Layer_1" xmlns="http://www.w3.org/2000/svg" xmlns:xlink="http://www.w3.org/1999/xlink" x="0px" y="0px"
	 width="32px" height="32px" viewBox="0 0 32 32" enable-background="new 0 0 32 32" xml:space="preserve">
<path fill="#407CCA" d="M25.6,0H6.4C2.88,0,0,2.88,0,6.4v19.2C0,29.12,2.88,32,6.4,32h19.2c3.521,0,6.4-2.88,6.4-6.4V6.4
	C32,2.88,29.12,0,25.6,0z M26.061,28c-7.84-0.064-9.534-2.112-12.872-2.112c-3.972,0.003-6.303,1.095-7.303,1.708
	c-0.74,0.401-0.568-0.366-0.568-0.633c0-0.27,0.44-0.53,0.44-0.53c0.919-0.595,3.281-1.787,7.431-1.787
	c3.344,0,5.041,2.052,12.91,2.109c0,0,0.6-0.062,0.6,0.475S26.661,28,26.061,28z M26.698,24.648c0,0.536-0.037,0.771-0.638,0.771
	c-7.84-0.064-9.534-2.109-12.872-2.109c-3.972,0-6.303,1.091-7.303,1.708c-0.74,0.398-0.568-0.369-0.568-0.637V8.866
	c0-0.269,0.44-0.53,0.44-0.53c0.919-0.595,3.281-1.788,7.431-1.788c3.344,0,5.041,2.052,12.91,2.109c0,0,0.6-0.061,0.6,0.475V24.648
	z M26.061,7.354c-7.84-0.064-9.534-2.109-12.872-2.109c-3.972,0-6.303,1.092-7.303,1.708c-0.74,0.398-0.568-0.369-0.568-0.636
	c0-0.269,0.44-0.53,0.44-0.53C6.677,5.192,9.039,4,13.189,4c3.344,0,5.041,2.053,12.91,2.109c0,0,0.6-0.061,0.6,0.475
	C26.698,7.12,26.661,7.354,26.061,7.354z"/>
</svg>
